icons/svg/poi_colored/mine_abandoned.svg

<?xml version="1.0" encoding="UTF-8" standalone="no"?>
<!-- Created with Inkscape (http://www.inkscape.org/) -->

<svg
   xmlns:dc="http://purl.org/dc/elements/1.1/"
   xmlns:cc="http://creativecommons.org/ns#"
   xmlns:rdf="http://www.w3.org/1999/02/22-rdf-syntax-ns#"
   xmlns:svg="http://www.w3.org/2000/svg"
   xmlns="http://www.w3.org/2000/svg"
   xmlns:sodipodi="http://sodipodi.sourceforge.net/DTD/sodipodi-0.dtd"
   xmlns:inkscape="http://www.inkscape.org/namespaces/inkscape"
   version="1.0"
   width="580"
   height="580"
   id="svg2"
   sodipodi:version="0.32"
   inkscape:version="0.91 r"
   sodipodi:docname="mine_abandoned.svg"
   inkscape:output_extension="org.inkscape.output.svg.inkscape">
  <metadata
     id="metadata10">
    <rdf:RDF>
      <cc:Work
         rdf:about="">
        <dc:format>image/svg+xml</dc:format>
        <dc:type
           rdf:resource="http://purl.org/dc/dcmitype/StillImage" />
        <cc:license
           rdf:resource="http://web.resource.org/cc/PublicDomain" />
        <dc:language>en</dc:language>
        <dc:title />
      </cc:Work>
    </rdf:RDF>
  </metadata>
  <sodipodi:namedview
     inkscape:window-height="1004"
     inkscape:window-width="1920"
     inkscape:pageshadow="2"
     inkscape:pageopacity="0.0"
     guidetolerance="10.0"
     gridtolerance="10.0"
     objecttolerance="10.0"
     borderopacity="1.0"
     bordercolor="#666666"
     pagecolor="#ffffff"
     id="base"
     showgrid="false"
     inkscape:zoom="1.4142136"
     inkscape:cx="283.55965"
     inkscape:cy="334.33526"
     inkscape:window-x="1680"
     inkscape:window-y="0"
     inkscape:current-layer="svg2"
     showguides="true"
     inkscape:guide-bbox="true"
     inkscape:window-maximized="1" />
  <defs
     id="defs4">
    <inkscape:perspective
       sodipodi:type="inkscape:persp3d"
       inkscape:vp_x="0 : 290 : 1"
       inkscape:vp_y="0 : 1000 : 0"
       inkscape:vp_z="580 : 290 : 1"
       inkscape:persp3d-origin="290 : 193.33333 : 1"
       id="perspective12" />
    <style
       type="text/css"
       id="style6">
   
    .fil0 {fill:#EF7900}
   
  </style>
    <inkscape:perspective
       id="perspective6807"
       inkscape:persp3d-origin="29.116032 : 19.410688 : 1"
       inkscape:vp_z="58.232063 : 29.116032 : 1"
       inkscape:vp_y="0 : 1000 : 0"
       inkscape:vp_x="0 : 29.116032 : 1"
       sodipodi:type="inkscape:persp3d" />
    <inkscape:perspective
       id="perspective6954"
       inkscape:persp3d-origin="290 : 193.33333 : 1"
       inkscape:vp_z="580 : 290 : 1"
       inkscape:vp_y="0 : 1000 : 0"
       inkscape:vp_x="0 : 290 : 1"
       sodipodi:type="inkscape:persp3d" />
    <inkscape:perspective
       id="perspective2541"
       inkscape:persp3d-origin="240 : 160 : 1"
       inkscape:vp_z="480 : 240 : 1"
       inkscape:vp_y="0 : 1000 : 0"
       inkscape:vp_x="0 : 240 : 1"
       sodipodi:type="inkscape:persp3d" />
    <inkscape:perspective
       id="perspective2750"
       inkscape:persp3d-origin="215 : 143.33333 : 1"
       inkscape:vp_z="430 : 215 : 1"
       inkscape:vp_y="0 : 1000 : 0"
       inkscape:vp_x="0 : 215 : 1"
       sodipodi:type="inkscape:persp3d" />
  </defs>
  <g
     id="g1327">
    <path
       d="M 66.275,1.768 C 24.94,1.768 1.704,23.139 1.704,66.804 L 1.704,516.927 C 1.704,557.771 22.598,579.156 63.896,579.156 L 515.92,579.156 C 557.227,579.156 578.149,558.84 578.149,516.927 L 578.149,66.804 C 578.149,24.203 557.227,1.768 514.627,1.768 C 514.624,1.768 66.133,1.625 66.275,1.768 z"
       style="fill:#111111;stroke:#eeeeee;stroke-width:3.40799999"
       id="path1329" />
  </g>
  <path
     id="path3652"
     d="m 380.27939,61.343555 c -10.97235,6.5028 -19.31732,16.735542 -29.44781,24.509018 -8.93761,8.0813 -9.50627,6.252418 -16.81746,15.873237 -0.1948,8.9594 11.20227,10.94132 15.81276,17.39863 l 44.60876,48.00036 c -24.80085,27.08373 -41.85395,47.67689 -66.46694,74.88483 -2.61844,8.15613 11.56466,15.17401 16.0625,19.90625 3.72716,5.49146 17.88518,15.68393 23.5625,9.03125 23.55242,-27.85565 35.37297,-42.62381 60.02944,-69.47858 15.93934,7.81589 15.11361,2.40554 30.23479,11.28594 27.04127,13.75185 51.47848,32.0633 78.89021,44.83906 6.22387,0.48814 10.58013,12.01677 6.5,8.46875 -16.94158,-31.97975 -28.62991,-66.63677 -46.65625,-98.09375 -9.07964,-8.80204 -18.90897,-17.00312 -28.21875,-25.46875 5.32116,-5.69014 14.05126,-10.28969 15,-18.65625 -5.39531,-6.56492 -12.0162,-13.88162 -20.5,-15.71875 -6.98051,2.8682 -10.97467,9.67123 -16.5,14.40625 -21.28111,-19.6948 -42.05006,-39.727797 -62.4375,-60.437495 -1.12466,-0.575544 -2.38264,-0.919197 -3.65625,-0.75 z M 220.54166,378.05368 c -9.2108,5.91414 -1.84765,-13.2217 -9.93911,-5.9788 -38.58525,41.51126 -65.65891,70.27735 -103.92734,112.0193 -2.59898,8.76827 7.5982,18.2313 12.32293,23.40562 5.74688,4.3521 21.80577,21.03856 29.92827,19.95711 24.49257,-24.7598 25.20457,-39.91523 48.80641,-65.4685 21.44133,-24.42735 28.46118,-32.08269 49.34009,-56.87223 1.95589,-9.17416 -8.63684,-13.28593 -13.40625,-19 -3.40432,-3.68397 -7.23423,-9.61746 -13.125,-8.0625 z"
     style="opacity:0.1;fill:#ffffff;fill-opacity:1;stroke:#ffffff;stroke-width:10;stroke-linecap:round;stroke-linejoin:round;stroke-miterlimit:4;stroke-dasharray:none;stroke-opacity:1"
     inkscape:connector-curvature="0"
     sodipodi:nodetypes="cccccccccccccccccccccccccccc" />
  <path
     id="path3654"
     d="M 215.59189,59.749805 C 200.95594,67.545697 188.29123,78.505487 174.33972,87.485986 135.96841,114.23429 99.085177,144.59746 74.216885,184.8123 c -12.305417,18.76433 -25.267546,37.33218 -37.03125,56.3125 0.739829,9.5112 11.764158,11.39769 17.392218,17.26654 13.51593,9.06039 16.359727,14.51011 31.136086,21.43516 9.131176,-2.18292 13.725706,-17.08807 19.671951,-23.24533 14.78123,-20.88692 38.8487,-35.43702 35.581,-41.39387 -3.49613,-16.52015 12.54686,13.62052 17.84007,17.12132 98.2233,98.04072 187.26825,187.75722 285.22243,286.06618 7.55316,4.1125 27.67171,-15.13057 31.96875,-19.90625 4.95765,-6.11006 17.24815,-19.50201 17.8586,-28.00321 -12.32191,-14.93443 -26.08529,-14.3424 -40.06418,-27.99339 C 362.6288,355.22598 271.1953,267.40748 179.81064,180.21855 c -0.26516,-2.05087 -2.95884,-11.82687 -2.05679,-13.79383 24.84666,-18.45136 46.36955,-30.13071 70.46085,-49.40945 2.8989,-9.00426 4.86627,-10.23987 1.15905,-17.170953 -10.78526,-13.16755 -19.42048,-28.530354 -32.09436,-39.969512 -0.54331,-0.151896 -1.12735,-0.1972 -1.6875,-0.125 z"
     style="opacity:0.1;fill:#ffffff;fill-opacity:1;stroke:#ffffff;stroke-width:10;stroke-linecap:round;stroke-linejoin:round;stroke-miterlimit:4;stroke-dasharray:none;stroke-opacity:1"
     inkscape:connector-curvature="0"
     sodipodi:nodetypes="ccccccccccccccccccc" />
  <path
     style="fill:none;stroke:#ffffff;stroke-width:21;stroke-linecap:round;stroke-linejoin:round;stroke-miterlimit:4;stroke-dasharray:none;stroke-dashoffset:0;stroke-opacity:1"
     d="m 206.41201,57.721203 c -14.63595,7.795893 -27.30066,18.755681 -41.25217,27.73618 -38.37131,26.748297 -72.254545,50.111477 -97.122834,90.326317 -12.305418,18.76433 -28.267546,44.33218 -40.031251,63.3125 11.981699,18.37127 39.687474,36.32756 58.028328,45.20168 20.094677,-31.43568 37.716647,-56.28947 49.875367,-70.76161 102.84492,103.59663 215.63249,217.91004 305.91927,308.83072 8.91508,2.75058 20.21844,-11.6773 28.10676,-20.04426 9.33861,-10.49103 24.04508,-20.29894 28.26222,-32.40683 -11.28779,-15.96855 -27.48353,-27.94416 -41.59228,-41.46528 -92.71455,-85.69519 -185.57899,-172.08275 -278.62446,-257.61088 22.82582,-25.24562 59.47572,-41.18012 73.05382,-51.85303 -4.71436,-21.354609 -28.25298,-47.567423 -42.9353,-61.140475 -0.54332,-0.151891 -1.12736,-0.197198 -1.6875,-0.125004 z"
     id="path3621"
     inkscape:connector-curvature="0"
     sodipodi:nodetypes="ccccccccccccccc" />
  <path
     style="fill:none;stroke:#ffffff;stroke-width:20.70000076;stroke-linecap:round;stroke-linejoin:round;stroke-miterlimit:4;stroke-dasharray:none;stroke-dashoffset:0;stroke-opacity:1"
     d="m 388.14051,46.741012 c -18.08334,15.49385 -42.74257,32.567364 -56.01526,49.632255 12.54591,24.442043 50.9838,54.697933 61.89854,65.522473 -24.16921,27.71537 -46.41698,49.51209 -70.31198,77.43802 1.7848,14.39168 36.39718,44.84772 43.71067,36.77318 22.36179,-29.04629 43.48756,-51.90747 67.53578,-79.37047 20.03717,16.86345 16.38961,15.78508 31.51079,24.66548 27.04127,13.75185 53.47848,29.0633 80.89021,41.83906 6.22387,0.48814 7.83013,-8.23322 3.75,-11.78124 -16.94157,-31.97976 -28.62991,-66.63678 -46.65625,-98.09376 -9.07964,-8.80204 -18.90897,-17.00312 -28.21875,-25.46875 5.32116,-5.69014 14.05126,-10.28969 15,-18.65625 -5.39531,-6.56492 -12.0162,-13.881623 -20.5,-15.718753 -6.98051,2.8682 -10.97467,9.671233 -16.5,14.406253 -21.28111,-19.694813 -42.05006,-39.727803 -62.4375,-60.437504 -1.12466,-0.57554 -2.38264,-0.919196 -3.65625,-0.749994 z M 212.73765,361.77382 c -40.11232,38.75247 -83.13316,88.75394 -109.30595,118.65483 5.43636,15.68637 33.67654,45.37781 47.87575,47.21949 33.63923,-44.39777 82.951,-98.22761 102.78982,-123.98345 -1.48339,-10.7614 -34.19962,-41.91879 -41.35977,-41.89102 z"
     id="path3604"
     inkscape:connector-curvature="0"
     sodipodi:nodetypes="cccccccccccccccccccccc" />
</svg>

<svg width="580" height="580" viewBox="0 0 580 580" fill="none" xmlns="http://www.w3.org/2000/svg">
<g clip-path="url(#clip0)">
<path d="M66.275 1.7679C24.94 1.7679 1.70398 23.1389 1.70398 66.8039V516.927C1.70398 557.771 22.598 579.156 63.896 579.156H515.92C557.227 579.156 578.149 558.84 578.149 516.927V66.8039C578.149 24.2029 557.227 1.7679 514.627 1.7679C514.624 1.7679 66.133 1.6249 66.275 1.7679Z" fill="#111111" stroke="#EEEEEE" stroke-width="3.408"/>
<path opacity="0.1" d="M380.279 61.3435C369.307 67.8463 360.962 78.0791 350.832 85.8525C341.894 93.9338 341.325 92.1049 334.014 101.726C333.819 110.685 345.216 112.667 349.827 119.124L394.436 167.125C369.635 194.208 352.582 214.802 327.969 242.01C325.35 250.166 339.533 257.184 344.031 261.916C347.758 267.407 361.916 277.6 367.594 270.947C391.146 243.091 402.967 228.323 427.623 201.469C443.562 209.284 442.737 203.874 457.858 212.754C484.899 226.506 509.336 244.818 536.748 257.593C542.972 258.082 547.328 269.61 543.248 266.062C526.307 234.082 514.618 199.425 496.592 167.969C487.512 159.166 477.683 150.965 468.373 142.5C473.694 136.81 482.424 132.21 483.373 123.844C477.978 117.279 471.357 109.962 462.873 108.125C455.893 110.993 451.898 117.796 446.373 122.531C425.092 102.836 404.323 82.8032 383.936 62.0935C382.811 61.518 381.553 61.1743 380.279 61.3435V61.3435ZM220.542 378.054C211.331 383.968 218.694 364.832 210.603 372.075C172.017 413.586 144.944 442.352 106.675 484.094C104.076 492.862 114.273 502.325 118.998 507.5C124.745 511.852 140.804 528.538 148.926 527.457C173.419 502.697 174.131 487.542 197.733 461.988C219.174 437.561 226.194 429.906 247.073 405.116C249.029 395.942 238.436 391.83 233.667 386.116C230.262 382.432 226.432 376.499 220.542 378.054Z" fill="white" stroke="white" stroke-width="10" stroke-linecap="round" stroke-linejoin="round"/>
<path opacity="0.1" d="M215.592 59.7499C200.956 67.5458 188.291 78.5056 174.34 87.4861C135.968 114.234 99.0852 144.598 74.2169 184.812C61.9115 203.577 48.9494 222.145 37.1857 241.125C37.9255 250.636 48.9498 252.523 54.5779 258.391C68.0938 267.452 70.9376 272.902 85.714 279.827C94.8451 277.644 99.4397 262.739 105.386 256.581C120.167 235.694 144.235 221.144 140.967 215.187C137.471 198.667 153.514 228.808 158.807 232.309C257.03 330.349 346.075 420.066 444.029 518.375C451.583 522.487 471.701 503.244 475.998 498.469C480.956 492.359 493.246 478.967 493.857 470.465C481.535 455.531 467.771 456.123 453.793 442.472C362.629 355.226 271.195 267.408 179.811 180.219C179.546 178.168 176.852 168.392 177.754 166.425C202.601 147.973 224.123 136.294 248.215 117.015C251.114 108.011 253.081 106.775 249.374 99.8444C238.589 86.6769 229.953 71.3141 217.279 59.8749C216.736 59.723 216.152 59.6777 215.592 59.7499V59.7499Z" fill="white" stroke="white" stroke-width="10" stroke-linecap="round" stroke-linejoin="round"/>
<path d="M206.412 57.7213C191.776 65.5172 179.111 76.477 165.16 85.4575C126.789 112.206 92.9053 135.569 68.037 175.784C55.7316 194.548 39.7694 220.116 28.0057 239.096C39.9874 257.468 67.6932 275.424 86.0341 284.298C106.129 252.862 123.751 228.009 135.909 213.536C238.754 317.133 351.542 431.446 441.829 522.367C450.744 525.118 462.047 510.69 469.935 502.323C479.274 491.832 493.981 482.024 498.198 469.916C486.91 453.947 470.714 441.972 456.605 428.451C363.891 342.756 271.026 256.368 177.981 170.84C200.807 145.594 237.457 129.66 251.035 118.987C246.32 97.6322 222.782 71.4194 208.099 57.8463C207.556 57.6944 206.972 57.6491 206.412 57.7213L206.412 57.7213Z" stroke="white" stroke-width="21" stroke-linecap="round" stroke-linejoin="round"/>
<path d="M388.14 46.741C370.057 62.2348 345.398 79.3083 332.125 96.3732C344.671 120.815 383.109 151.071 394.024 161.896C369.855 189.611 347.607 211.408 323.712 239.334C325.497 253.725 360.109 284.181 367.422 276.107C389.784 247.061 410.91 224.199 434.958 196.736C454.995 213.6 451.348 212.522 466.469 221.402C493.51 235.154 519.947 250.465 547.359 263.241C553.583 263.729 555.189 255.008 551.109 251.46C534.168 219.48 522.479 184.823 504.453 153.366C495.373 144.564 485.544 136.363 476.234 127.897C481.555 122.207 490.285 117.608 491.234 109.241C485.839 102.676 479.218 95.3594 470.734 93.5222C463.754 96.3904 459.76 103.193 454.234 107.928C432.953 88.2337 412.184 68.2007 391.797 47.491C390.672 46.9154 389.414 46.5718 388.14 46.741V46.741ZM212.738 361.774C172.625 400.526 129.604 450.528 103.432 480.429C108.868 496.115 137.108 525.806 151.307 527.648C184.947 483.25 234.258 429.421 254.097 403.665C252.614 392.903 219.898 361.746 212.737 361.774L212.738 361.774Z" stroke="white" stroke-width="20.7" stroke-linecap="round" stroke-linejoin="round"/>
</g>
<defs>
<clipPath id="clip0">
<path d="M0 0H580V580H0V0Z" fill="white"/>
</clipPath>
</defs>
</svg>
